static/images/ondemandbeliefbase.svg

<?xml version="1.0" encoding="UTF-8" standalone="no"?>
<!DOCTYPE svg PUBLIC "-//W3C//DTD SVG 1.1//EN" "http://www.w3.org/Graphics/SVG/1.1/DTD/svg11.dtd">
<svg xmlns="http://www.w3.org/2000/svg" xmlns:xl="http://www.w3.org/1999/xlink" version="1.1" viewBox="3 -2 413 112" width="413pt" height="112pt" xmlns:dc="http://purl.org/dc/elements/1.1/"><metadata> Produced by OmniGraffle 6.6.1 <dc:date>2016-12-18 17:24:24 +0000</dc:date></metadata><defs><filter id="Shadow" filterUnits="userSpaceOnUse"><feGaussianBlur in="SourceAlpha" result="blur" stdDeviation="1.308"/><feOffset in="blur" result="offset" dx="0" dy="2"/><feFlood flood-color="black" flood-opacity=".5" result="flood"/><feComposite in="flood" in2="offset" operator="in"/></filter><filter id="Shadow_2" filterUnits="userSpaceOnUse"><feGaussianBlur in="SourceAlpha" result="blur" stdDeviation="1.3030978"/><feOffset in="blur" result="offset" dx="0" dy="2"/><feFlood flood-color="black" flood-opacity=".2" result="flood"/><feComposite in="flood" in2="offset" operator="in" result="color"/><feMerge><feMergeNode in="color"/><feMergeNode in="SourceGraphic"/></feMerge></filter><font-face font-family="Helvetica" font-size="12" units-per-em="1000" underline-position="-75.683594" underline-thickness="49.316406" slope="0" x-height="522.94922" cap-height="717.28516" ascent="770.01953" descent="-229.98047" font-weight="500"><font-face-src><font-face-name name="Helvetica"/></font-face-src></font-face><font-face font-family="Helvetica" font-size="10" units-per-em="1000" underline-position="-75.683594" underline-thickness="49.316406" slope="0" x-height="522.94922" cap-height="717.28516" ascent="770.01953" descent="-229.98047" font-weight="500"><font-face-src><font-face-name name="Helvetica"/></font-face-src></font-face><font-face font-family="Helvetica Neue" font-size="16" panose-1="2 0 5 3 0 0 0 2 0 4" units-per-em="1000" underline-position="-100" underline-thickness="50" slope="0" x-height="517" cap-height="714" ascent="951.99585" descent="-212.99744" font-weight="500"><font-face-src><font-face-name name="HelveticaNeue"/></font-face-src></font-face></defs><g stroke="none" stroke-opacity="1" stroke-dasharray="none" fill="none" fill-opacity="1"><title>Beliefbase On-Demand</title><g><title>Ebene 1</title><g><xl:use xl:href="#id8_Graphic" filter="url(#Shadow)"/><xl:use xl:href="#id3_Graphic" filter="url(#Shadow)"/></g><g filter="url(#Shadow_2)"><path d="M 24 9 L 104.18182 9 C 109.15238 9 113.18182 13.029437 113.18182 18 L 113.18182 76.09091 C 113.18182 81.06147 109.15238 85.09091 104.18182 85.09091 L 24 85.09091 C 19.029437 85.09091 15 81.06147 15 76.09091 L 15 18 C 15 13.029437 19.029437 9 24 9 Z" stroke="black" stroke-linecap="round" stroke-linejoin="round" stroke-width="1"/><text transform="translate(20 14)" fill="black"><tspan font-family="Helvetica" font-size="12" font-weight="500" x="28.411222" y="11" textLength="31.359375">Agent</tspan></text></g><g id="id8_Graphic"><rect x="32.181818" y="39.272727" width="66.272727" height="29.454545" fill="white"/><path d="M 32.181818 39.272727 L 98.454545 39.272727 L 98.454545 68.727273 L 32.181818 68.727273 Z M 38.80909 39.272727 L 38.80909 68.727273 M 91.82727 68.727273 L 91.82727 39.272727" stroke="black" stroke-linecap="round" stroke-linejoin="round" stroke-width="1"/><text transform="translate(43.80909 42)" fill="black"><tspan font-family="Helvetica" font-size="10" font-weight="500" x="10.759579" y="10" textLength="6.669922">V</tspan><tspan font-family="Helvetica" font-size="10" font-weight="500" x="17.25372" y="10" textLength="17.783203">iew </tspan><tspan font-family="Helvetica" font-size="10" font-weight="500" x="10.1174893" y="22" textLength="22.783203">(env)</tspan></text></g><g id="id3_Graphic"><path d="M 220.06818 30.272727 L 269.13636 54 L 220.06818 77.727273 L 171 54 Z" fill="white"/><path d="M 220.06818 30.272727 L 269.13636 54 L 220.06818 77.727273 L 171 54 Z" stroke="black" stroke-linecap="round" stroke-linejoin="round" stroke-width="1"/><text transform="translate(189.24841 41.525455)" fill="black"><tspan font-family="Helvetica" font-size="10" font-weight="500" x="4.5672496" y="10" textLength="54.467773">On-Demand</tspan><tspan font-family="Helvetica" font-size="10" font-weight="500" x="8.451527" y="22" textLength="46.69922">Beliefbase</tspan></text></g><line x1="98.454545" y1="54" x2="171" y2="54" stroke="black" stroke-linecap="round" stroke-linejoin="round" stroke-width="1"/><path d="M 326.7333 58.8339 C 312.1875 54 317.988 13.3065 341.1918 20.25 C 343.3446 6.7149 370.3275 8.9118 370.1511 20.25 C 387.0702 5.7483 408.6918 34.6644 394.1892 49.1661 C 411.5916 56.1969 393.9696 94.0779 379.6875 87.75 C 378.5445 98.2971 353.0124 101.988 350.7714 87.75 C 336.3138 102.9555 306.1674 79.5762 326.7333 58.8339 Z" fill="white"/><path d="M 326.7333 58.8339 C 312.1875 54 317.988 13.3065 341.1918 20.25 C 343.3446 6.7149 370.3275 8.9118 370.1511 20.25 C 387.0702 5.7483 408.6918 34.6644 394.1892 49.1661 C 411.5916 56.1969 393.9696 94.0779 379.6875 87.75 C 378.5445 98.2971 353.0124 101.988 350.7714 87.75 C 336.3138 102.9555 306.1674 79.5762 326.7333 58.8339 Z" stroke="black" stroke-linecap="round" stroke-linejoin="round" stroke-width="1"/><text transform="translate(333.5 35.552002)" fill="black"><tspan font-family="Helvetica Neue" font-size="16" font-weight="500" x="13.756" y="15" textLength="29.936">any </tspan><tspan font-family="Helvetica Neue" font-size="16" font-weight="500" x=".276" y="33.447998" textLength="52.448">objects</tspan></text><line x1="269.13636" y1="54" x2="321.24426" y2="54" stroke="black" stroke-linecap="round" stroke-linejoin="round" stroke-width="1"/></g></g></svg>

<svg xmlns="http://www.w3.org/2000/svg" xmlns:xl="http://www.w3.org/1999/xlink" viewBox="3 -2 413 112"><defs><filter id="b" filterUnits="userSpaceOnUse"><feGaussianBlur in="SourceAlpha" result="blur" stdDeviation="1.308"/><feOffset in="blur" result="offset" dy="2"/><feFlood flood-color="#000" flood-opacity=".5" result="flood"/><feComposite in="flood" in2="offset" operator="in"/></filter><filter id="d" filterUnits="userSpaceOnUse"><feGaussianBlur in="SourceAlpha" result="blur" stdDeviation="1.303"/><feOffset in="blur" result="offset" dy="2"/><feFlood flood-color="#000" flood-opacity=".2" result="flood"/><feComposite in="flood" in2="offset" operator="in" result="color"/><feMerge><feMergeNode in="color"/><feMergeNode in="SourceGraphic"/></feMerge></filter></defs><g fill="none"><xl:use xl:href="#a" filter="url(#b)"/><xl:use xl:href="#c" filter="url(#b)"/><g filter="url(#d)"><path d="M24 9h80.182a9 9 0 0 1 9 9v58.09a9 9 0 0 1-9 9H24a9 9 0 0 1-9-9V18a9 9 0 0 1 9-9z" stroke="#000" stroke-linecap="round" stroke-linejoin="round"/><text transform="translate(20 14)" fill="#000"><tspan font-size="12" font-weight="500" x="28.411" y="11" textLength="31.359">Agent</tspan></text></g><g id="a"><path fill="#fff" d="M32.182 39.273h66.273v29.455H32.182z"/><path d="M32.182 39.273h66.273v29.454H32.182zm6.627 0v29.454m53.018 0V39.273" stroke="#000" stroke-linecap="round" stroke-linejoin="round"/><text transform="translate(43.81 42)" fill="#000"><tspan font-size="10" font-weight="500" x="10.76" y="10" textLength="6.67">V</tspan><tspan font-size="10" font-weight="500" x="17.254" y="10" textLength="17.783">iew </tspan><tspan font-size="10" font-weight="500" x="10.117" y="22" textLength="22.783">(env)</tspan></text></g><g id="c"><path d="M220.068 30.273L269.136 54l-49.068 23.727L171 54z" fill="#fff"/><path d="M220.068 30.273L269.136 54l-49.068 23.727L171 54z" stroke="#000" stroke-linecap="round" stroke-linejoin="round"/><text transform="translate(189.248 41.525)" fill="#000"><tspan font-size="10" font-weight="500" x="4.567" y="10" textLength="54.468">On-Demand</tspan><tspan font-size="10" font-weight="500" x="8.452" y="22" textLength="46.699">Beliefbase</tspan></text></g><path stroke="#000" stroke-linecap="round" stroke-linejoin="round" d="M98.455 54H171"/><path d="M326.733 58.834C312.187 54 317.988 13.306 341.192 20.25c2.153-13.535 29.135-11.338 28.96 0 16.918-14.502 38.54 14.414 24.037 28.916 17.403 7.03-.22 44.912-14.502 38.584-1.142 10.547-26.675 14.238-28.916 0-14.457 15.206-44.604-8.174-24.038-28.916z" fill="#fff"/><path d="M326.733 58.834C312.187 54 317.988 13.306 341.192 20.25c2.153-13.535 29.135-11.338 28.96 0 16.918-14.502 38.54 14.414 24.037 28.916 17.403 7.03-.22 44.912-14.502 38.584-1.142 10.547-26.675 14.238-28.916 0-14.457 15.206-44.604-8.174-24.038-28.916z" stroke="#000" stroke-linecap="round" stroke-linejoin="round"/><text transform="translate(333.5 35.552)" fill="#000"><tspan font-size="16" font-weight="500" x="13.756" y="15" textLength="29.936">any </tspan><tspan font-size="16" font-weight="500" x=".276" y="33.448" textLength="52.448">objects</tspan></text><path stroke="#000" stroke-linecap="round" stroke-linejoin="round" d="M269.136 54h52.108"/></g></svg>
